X: 22985
T: Lasses Of Dunse
R: jig
M: 6/8
K: Dmajor
f/g/|afd ecA|dcB A2=c|BGB AGF|E2E E2 f/g/|
afd ecA|dcB A2G|FDF E=cE|D3 D2:|
(F/G/)|AFA BGB|AFA =c2A|BAG AGF|E2E E2f/g/|
afa geg|fdf ecA|(3Bcd B =cec|d (3gfe d2:|

